UI/Core-UI/SVG/invalid_outline_24px.svg

<svg width="24" height="24" viewBox="0 0 24 24" fill="none" xmlns="http://www.w3.org/2000/svg">
<path d="M12 2C10.2827 2.00069 8.59445 2.44363 7.09799 3.28616C5.60153 4.12868 4.34727 5.3424 3.45603 6.81037C2.5648 8.27834 2.06663 9.9511 2.00953 11.6675C1.95243 13.3839 2.33831 15.086 3.13 16.61L4.64 15.1C4.33382 14.3837 4.13826 13.625 4.06 12.85C4.02321 12.5681 4.00318 12.2843 4 12C3.99974 11.3255 4.08372 10.6537 4.25 10C4.32333 9.74 4.40333 9.49 4.49 9.25C4.50895 9.16439 4.53573 9.0807 4.57 9C4.69638 8.7181 4.83998 8.44425 5 8.18C5.1776 7.8295 5.38503 7.49493 5.62 7.18C6.46928 6.05968 7.59649 5.18066 8.89 4.63C9.87426 4.21471 10.9317 4.00075 12 4.00075C13.0683 4.00075 14.1257 4.21471 15.11 4.63L16.6 3.14C15.1802 2.39691 13.6025 2.00593 12 2ZM20.87 7.39L19.38 8.88C19.7953 9.86425 20.0093 10.9217 20.0093 11.99C20.0093 13.0583 19.7953 14.1157 19.38 15.1C18.8255 16.4079 17.9355 17.5463 16.8 18.4C16.4851 18.635 16.1505 18.8424 15.8 19.02C15.522 19.1713 15.2348 19.3049 14.94 19.42L14.72 19.5C14.48 19.5933 14.23 19.6733 13.97 19.74C13.3265 19.9072 12.6648 19.9945 12 20C11.7293 19.9986 11.4588 19.9819 11.19 19.95C10.415 19.8717 9.65629 19.6762 8.94 19.37L7.39 20.87C9.27545 21.8472 11.4231 22.1989 13.5217 21.8739C15.6204 21.549 17.5611 20.5644 19.0627 19.0627C20.5644 17.5611 21.549 15.6204 21.8739 13.5217C22.1989 11.4231 21.8472 9.27545 20.87 7.39ZM3.44 22L2 20.56L20.58 2L22 3.42L3.44 22Z" fill="#0F1621"/>
</svg>

<svg xmlns="http://www.w3.org/2000/svg" width="24" height="24" viewBox="0 0 24 24"><rect width="24" height="24" style="fill:none"/><path d="M12,2A10,10,0,0,0,3.13,16.61L4.64,15.1a7.69,7.69,0,0,1-.58-2.25h0v0A7.19,7.19,0,0,1,4,12a8.1,8.1,0,0,1,.25-2q.11-.39.24-.75A1.43,1.43,0,0,1,4.57,9,7.53,7.53,0,0,1,5,8.18a6.85,6.85,0,0,1,.62-1v0A8.07,8.07,0,0,1,8.89,4.63h0a8,8,0,0,1,6.22,0l1.49-1.49A10,10,0,0,0,12,2Zm8.87,5.39L19.38,8.88a8,8,0,0,1,0,6.22h0A8.07,8.07,0,0,1,16.8,18.4h0a6.85,6.85,0,0,1-1,.62,7.53,7.53,0,0,1-.86.4l-.22.08q-.36.14-.75.24A8.1,8.1,0,0,1,12,20a7.19,7.19,0,0,1-.81-.05h0a7.69,7.69,0,0,1-2.25-.58L7.39,20.87A10,10,0,0,0,20.87,7.39ZM3.44,22,2,20.56,20.58,2,22,3.42Z"/></svg>
